youtube.svg

<?xml version="1.0" encoding="UTF-8"?>
<svg width="2000px" height="1600px" viewBox="0 0 2000 1600" version="1.1" xmlns="http://www.w3.org/2000/svg" xmlns:xlink="http://www.w3.org/1999/xlink">
    <!-- Generator: Sketch 48.2 (47327) - http://www.bohemiancoding.com/sketch -->
    <title>Artboard</title>
    <desc>Created with Sketch.</desc>
    <defs></defs>
    <g id="Page-1" stroke="none" stroke-width="1" fill="none" fill-rule="evenodd">
        <g id="Artboard" fill="#FF0000" fill-rule="nonzero">
            <path d="M1039.87793,1420.49403 L670.587703,1413.74015 C551.01969,1411.38666 431.15411,1416.08462 313.930568,1391.70212 C135.606509,1355.27265 122.973418,1176.65102 109.754209,1026.8213 C91.5394745,816.179616 98.5909214,601.714637 132.964471,392.831303 C152.369476,275.625795 228.736105,205.688427 346.834314,198.077914 C745.502563,170.458244 1146.82187,173.731486 1544.60643,186.617058 C1586.61755,187.798311 1628.91721,194.254623 1670.34221,201.603637 C1874.82515,237.446989 1879.81166,439.864995 1893.06694,610.262939 C1906.28614,782.419236 1900.7045,955.459218 1875.43832,1126.44328 C1855.16766,1268.01325 1816.3847,1386.73365 1652.71359,1398.1945 C1447.64453,1413.18108 1247.28244,1425.24609 1041.63628,1421.40476 C1041.6453,1420.49403 1040.46405,1420.49403 1039.87793,1420.49403 Z M822.770912,1062.07854 C977.307609,973.349334 1128.89568,886.09895 1282.54869,797.964881 C1127.72345,709.235677 976.423924,621.985293 822.770912,533.851224 L822.770912,1062.07854 Z" id="Shape"></path>
        </g>
    </g>
</svg>

<svg width="2000" height="1600" xmlns="http://www.w3.org/2000/svg"><path d="M1039.878 1420.494l-369.29-6.754c-119.568-2.353-239.434 2.345-356.657-22.038-178.324-36.43-190.958-215.051-204.177-364.88-18.215-210.642-11.163-425.107 23.21-633.99 19.405-117.206 95.772-187.144 213.87-194.754 398.669-27.62 799.988-24.347 1197.772-11.46 42.012 1.18 84.311 7.637 125.736 14.986 204.483 35.843 209.47 238.261 222.725 408.659 13.22 172.156 7.638 345.196-17.629 516.18-20.27 141.57-59.053 260.29-222.724 271.752-205.07 14.986-405.432 27.051-611.078 23.21.01-.911-1.172-.911-1.758-.911zM822.77 1062.079c154.537-88.73 306.125-175.98 459.778-264.114-154.826-88.73-306.125-175.98-459.778-264.114v528.228z" fill="red"/></svg>
